X: 1
T: Boite de Jazz
C: Chistian Josu\'e
R: mazurka
S: handout at NEFFA 2016 from Mark Vidor p.11 #1
Z: 2016 John Chambers <jc:trillian.mit.edu>
M: 9/8
L: 1/16
K: Am
E A2B "A"|:\
"Am"c3 B2A B2A | "G"G2B E2E A2B | "F"c3 B2c "G"d2G | "C"e3- e2d c2B |\
"Am"c3 B2A B2A | "G"G2B E2E A2B | "F"c3 B2A "G"G2B |1 "Am"A3- A2A A2B :|2 "Am"A3 A2A A2c |
"B"|:\
"E"e3 ^d3 B2=d | "Am"c3 B3 A2B | "F"c3 B2c "G"d2G | "C"e2d c2B c2d |\
"E"e3 ^d3 B2=d | "Am"c3 B3 A2B | "F"c3 B2A "G"G2B |1 "Am"A3- A2A A2c :|2 "Am"A3 A2z z |]
